X:7
T:Lady Heriet Georgina Hamilton
B:William Marshall Volume 2nd Of A Collection Of Scottish Melodies (1845)
C:William Marshall
L:1/8
M:C
O:Scotland
R:Strathspey
Z:Clark Bernst + Richard Robinson
%%Page:2 - 1
F:http://richardrobinson.tunebook.org.uk/tune/4064
%%TBL:{"version":1,"type":"tune","id":"4064"}
K:F
%%staves {1 2}
V:1
d | \
c3/F/A3/F/ d2 df | c3/F/A3/F/ [Fd]G[EG]f | \
c3/2F/A3/2F/ d2 df | b/a/g/f/ c/d/e/g/ fFF :|
f | \
b/a/g/f/ af g/f/e/d/ cA | B3/c/ d/c/B/A/ BGGf | \
b/a/g/f/ g/f/e/d/ cAAd | [Ac]f[Be]g [ca]ffg |
b/a/g/f/ a/g/f/e/ g/f/e/d/ cA | [FB]3/c/ d/c/B/A/ [EB]GGA | \
F/G/A/B/ cA d2 Bd | EG!trill![Ec]3/B/ AF[A,F] |]
V:2 middle=d clef=bass
L:1/4
z/ | \
[Ff] [Ff] [Bb] [Bb] | [Aa] [Ff] [Bb] [cc'] | \
[Aa] [Ff] [Bb] [Bb] | [Bb] [cb] [fa] [Ff]/ :| \
z/ | \
[fac'] [fac'] [fbd'] [fac'] | [fbd'] [fac'] [cc'] [cc'] | \
[fac'] [fbd'] [fac'] [fac'] | [fc'] [cc'] [fac'] [fac'] | \
[fac'] [fac']  [fbd'] [fac'] | d'3//c'//b c'c' & F,2CC | \
[fac'] [fac'] [fbd'] [fbd'] | [cc'] [cc'] [Ff] [Ff]/ |]

